X:1
T:Title
%%score { ( 1 3 ) | ( 2 4 ) }
L:1/8
Q:1/4=100
M:4/4
K:D
V:1 treble nm="Grand Piano"
V:3 treble 
V:2 bass 
V:4 bass 
V:1
 [A,DF]2 [A,DF]>[K:bass][G,CE] [G,CE]<[F,D]- [F,D]2 | [A,EA]2 [A,EA][A,EG] [A,DF]4 | %2
w: H.~L.~Gilmour * * * * *||
 [Fd]2 [Fd]>[Fd] [Fd]2 [FA]2 | [GB]2 [FA][A,DF] [A,CE]4 | %4
w: ||
 [A,DF]2 [A,DF]>[K:bass][G,CE] [G,CE]<[F,D]- [F,D]2 | [A,EA]2 [A,EA][A,EG] [A,DF]4 | %6
w: ||
 [Ec]2 [Ec]>[Ec] [Fd]2 [DF]2 | [CA]2 [CE][CF] D4 | [Fd]2 [Fd]>[Fd] [Fd]<[Fd]- [Fd]2 | %9
w: |||
 [GB][Bd][Ac][GB] [FA]4 | [Fd]2 [Fd]>[Fd] [Fd]<[Fd]- [Fd]2 | [Ee][Fd][Ec][DB] [A,A]2- [A,GA]2 | %12
w: |||
 [Fd]2 FF B2 E2 | A2 DD G4 | F2 [EG][FA] B2 ^AB | [^Ge]2 cc [Fd]4 |] %16
w: ||||
V:2
 D,2 D,>A,, A,,<D,- D,2 | C,2 C,C, D,4 | [D,A,]2 [D,A,]>[D,A,] [D,A,]2 [D,D]2 | %3
 [D,D]2 [D,D]D, A,,4 | D,2 D,>A,, A,,<D,- D,2 | C,2 C,C, D,4 | %6
 [A,,A,]2 [A,,A,]>[A,,A,] [D,A,]2 [D,A,]2 | [A,,A,]2 [A,,A,][A,,A,] [D,F,]4 | %8
 [D,A,]2 [D,A,]>[D,A,] [D,A,]<[D,D]- [D,D]2 | [G,D]2 [G,D][G,D] [D,D]4 | %10
 [D,A,]2 [D,A,]>[D,A,] [B,,B,]<[B,,B,]- [B,,B,]2 | A,2 z2 z4 | %12
 [D,A,]2 [D,A,D][D,A,D] [G,B,D]2 [G,B,D]2 | [F,A,D]2 [F,A,][F,^A,] [E,A,C]4 | %14
 [D,A,D]2 [D,B,][D,D][K:treble] [G,DG]2 [G,CG][G,B,G] | [E,B,]2 [A,G][A,G][K:bass] [D,A,]4 |] %16
V:3
 x7/2[K:bass] x9/2 | x8 | x8 | x8 | x7/2[K:bass] x9/2 | x8 | x8 | x8 | x8 | x8 | x8 | z4 C2 z2 | %12
 x8 | x8 | x8 | x8 |] %16
V:4
 x8 | x8 | x8 | x8 | x8 | x8 | x8 | x8 | x8 | x8 | x8 | C,D,[E,A,][E,^G,] A,,2 C,2 | x8 | x8 | %14
 x4[K:treble] x4 | x4[K:bass] x4 |] %16

